X:62
T:Ludlow Races. JJo8.062
B:J.Johnson Choice Collection Vol 8 1758
Z:vmp.Simon Wilson 2013 www.village-music-project.org.uk
M:C|
L:1/8
Q:1/2=85
K:Bb
B2FBB2FB|Bd dc/B/ dbb2|e2cee2ce|egfed2{c}B2:|
|:f2dBb2fd|e2cAg2fe|d2Bdc2fd|cBAG{B}A2GF|
B2FBB2FB|Bddc dbb2|e2ced2Bd|cBcAB2B,2:|
